icons/repo-16.svg

<svg xmlns="http://www.w3.org/2000/svg" width="16" height="16" viewBox="0 0 16 16">
  <defs/>
  <path d="M2,2.5 C2,1.119 3.119,0 4.5,0 L13.25,0 C13.664,0 14,0.336 14,0.75 L14,13.25 C14,13.664 13.664,14 13.25,14 L10.75,14 C10.336,14 10,13.664 10,13.25 C10,12.836 10.336,12.5 10.75,12.5 L12.5,12.5 L12.5,10.5 L4.5,10.5 C4.097,10.5 3.734,10.742 3.578,11.113 C3.422,11.484 3.504,11.912 3.786,12.2 C4.076,12.496 4.071,12.971 3.775,13.261 C3.479,13.551 3.004,13.546 2.714,13.25 C2.256,12.783 1.999,12.154 2,11.5 Z M12.5,1.5 L4.5,1.5 C3.948,1.5 3.5,1.948 3.5,2.5 L3.5,9.208 C3.806,9.074 4.144,9 4.5,9 L12.5,9 Z M5,12.25 C5,12.112 5.112,12 5.25,12 L8.75,12 C8.888,12 9,12.112 9,12.25 L9,15.5 C9,15.595 8.946,15.681 8.862,15.724 C8.777,15.766 8.676,15.757 8.6,15.7 L7.15,14.613 C7.061,14.546 6.939,14.546 6.85,14.613 L5.4,15.7 C5.324,15.757 5.223,15.766 5.138,15.724 C5.054,15.681 5,15.595 5,15.5 Z"/>
</svg>

<svg xmlns="http://www.w3.org/2000/svg" width="16" height="16" viewBox="0 0 16 16"><path d="M2 2.5A2.5 2.5 0 014.5 0h8.75a.75.75 0 01.75.75v12.5a.75.75 0 01-.75.75h-2.5a.75.75 0 010-1.5h1.75v-2h-8a1 1 0 00-.714 1.7.75.75 0 11-1.072 1.05A2.495 2.495 0 012 11.5zm10.5-1h-8a1 1 0 00-1 1v6.708A2.486 2.486 0 014.5 9h8zM5 12.25a.25.25 0 01.25-.25h3.5a.25.25 0 01.25.25v3.25a.25.25 0 01-.4.2l-1.45-1.087a.249.249 0 00-.3 0L5.4 15.7a.25.25 0 01-.4-.2z"/></svg>
